X: 6369
T: Cashmere Shawl, The
R: reel
M: 4/4
K: Ddorian
A3B AGEG|AGAB c2Bc|A2AB AGE(g|{a}g)edB cAdc|
A3B AGEG|AGAB c2Bc|A2AB AGEG|gedB ~c3d||
e3g edcd|egec d2cd|e3g edcd|efge d2cd|
e2eg edcd|e/f/g ec d2cd|ea{b}ag eg^fa|gedB ~c3d||
ecgc edcd|egec d2cd|ecgc edcd|eage d2cd|
ecgc edcd|egec dBcd|e~a3 e/^f/g fa|gedB cAdc||

